X:1
T: Wha can help it
C:
R:Jig
Q:180
K:A
M:6/8
L:1/16
CB,|:A,3CE2 E2C2E2|F2E2F2 A4B2|c4A2 d4c2|B2B,2B,2 B,4CB,|
A,3CE2 E2C2E2|F2E2F2 A4B2|c4A2 d4B2|1c2A2A2 A4CB,:|2c2A2A2 A4cd|
e3fe2 e2c2e2|a2g2f2 e2c2A2|def2d2 e2c2A2|
|1G2B2B2 B4cd|e3fe2 e2c2e2|a2g2f2 e2c2A2|d2c2d2 B2e2d2|c2A2A2 A4cd:|
|2G2B2B2 B4CB,|A,3CE2 E2C2E2|F2E2F2 A4B2|ABc2A2 Bcd2B2|c2A2A2 A4||
